X:1
T:Partition sans titre
C:Compositeur / Arrangeur
L:1/8
M:4/4
I:linebreak $
K:C
V:1 treble nm="Violon" snm="Vln."
V:1
"C" GccG c2 e2 |"G" dcdd"C" c2 de | egge g2 e2 |1"G" dcdc d2 z G :|2"G" dcdd"C" c2 de |: %5
"C" egge g2 eg |"F" agfa"G" g2 z G |"C" GccG c2 e2 |1"G" dcdc d2 z d :|2"G" dcdd"C" c2 z G |] %10
